static/images/mobile/copyright/wikipedia-wordmark-sa.svg

<?xml version="1.0" encoding="UTF-8"?>
<svg width="120px" height="23px" viewBox="0 0 120 23" version="1.1" xmlns="http://www.w3.org/2000/svg" xmlns:xlink="http://www.w3.org/1999/xlink">
    <title>wikipedia-wordmark-sa</title>
    <g id="Page-1" stroke="none" stroke-width="1" fill="none" fill-rule="evenodd">
        <path d="M0,5.78620462 L1.78586642,7.56186232 L1.78586642,22.583548 L0,20.818099 L0,5.78620462 M4.93919617,5.78620462 L6.72506258,7.56186232 L6.72506258,22.583548 L4.93919617,20.818099 L4.93919617,5.78620462 M14.5216434,8.33743546 L13.0113111,8.33743546 L11.582618,6.92916298 L14.5420528,6.92916298 C13.861723,5.92909451 13.5215573,4.71129901 13.5215589,3.27579256 C13.5215573,2.2485062 13.9195509,1.43552252 14.7155367,0.836809377 C15.3618482,0.353784311 16.2326695,0.112247662 17.3280038,0.112247662 C18.4301337,0.112247662 19.3757905,0.234736196 20.1649806,0.479632878 C21.083418,0.758580055 21.9984615,1.24842165 22.9101112,1.94914159 C24.4884658,3.16695316 25.702853,4.87118199 26.5532793,7.06182808 L26.0328261,7.06182808 C25.9239609,6.8713511 25.7436734,6.5141746 25.4919634,5.99029858 C25.2402293,5.41203502 24.760598,4.78272788 24.0530664,4.10239322 C23.1550208,3.23838203 22.2773958,2.62269187 21.4201899,2.25529058 C20.3860806,1.81310038 19.3417754,1.59199724 18.2872695,1.59196509 C17.3143932,1.59199724 16.5116054,1.80969212 15.8789012,2.24508186 C15.0829139,2.78937531 14.6849202,3.50371223 14.6849218,4.38812478 C14.6849202,5.51068178 15.0148804,6.35769988 15.6748025,6.92916298 L17.7566124,6.92916298 L19.1853055,8.33743546 L16.2156651,8.33743546 L16.2156651,21.5630621 L14.5216434,19.869042 L14.5216434,8.33743546 M17.7464069,8.33743546 L16.3585341,6.92916298 L30.3903392,6.92916298 L31.768008,8.33743546 L28.3289403,8.33743546 L28.3289403,21.5630621 L26.5124589,19.7465695 L26.5124589,16.0830065 C26.0022031,16.4231738 25.4171198,16.7225063 24.7572074,16.981036 C24.0020356,17.2735841 23.3693283,17.4062492 22.8590869,17.3790313 C21.8249808,17.3246116 20.9303483,16.8245613 20.1751861,15.8788964 C19.5764939,15.1237407 19.2771486,14.2325116 19.2771502,13.2052092 C19.3928045,12.6745488 19.5900996,12.2493517 19.8690372,11.9295857 C20.9507577,10.9090998 22.1481374,10.4226665 23.4611794,10.4702697 C24.7674049,10.5111045 25.7844986,11.1370034 26.5124589,12.3479824 L26.5124589,8.33743546 L17.7464069,8.33743546 M26.2981547,12.8072139 C26.0804405,12.3445902 25.4069159,12.1132783 24.2775745,12.1132783 C23.0665827,12.1132783 21.9916626,12.589519 21.0528111,13.5419683 C20.5969878,14.004592 20.3690794,14.4774244 20.3690794,14.9604495 C20.3690794,15.5999653 20.8895295,15.9197152 21.9304361,15.9197152 C23.2366648,15.9197152 24.4238389,15.3686535 25.4919634,14.2665139 C26.0294162,13.7154521 26.2981547,13.2290188 26.2981547,12.8072139 M31.8700582,8.33743546 L30.3597243,8.33743546 L28.9310327,6.92916298 L31.8904676,6.92916298 C31.2101361,5.92909451 30.869972,4.71129901 30.869972,3.27579256 C30.869972,2.2485062 31.2679641,1.43552252 32.0639515,0.836809377 C32.710263,0.353784311 33.5810843,0.112247662 34.6764186,0.112247662 C35.7785485,0.112247662 36.7242053,0.234736196 37.5133938,0.479632878 C38.4318327,0.758580055 39.3468747,1.24842165 40.258526,1.94914159 C41.8368805,3.16695316 43.0512678,4.87118199 43.9016925,7.06182808 L43.3812408,7.06182808 C43.2723741,6.8713511 43.0920882,6.5141746 42.8403782,5.99029858 C42.5886441,5.41203502 42.1090112,4.78272788 41.4014811,4.10239322 C40.5034339,3.23838203 39.6258106,2.62269187 38.7686031,2.25529058 C37.7344937,1.81310038 36.6901886,1.59199724 35.6356843,1.59196509 C34.662808,1.59199724 33.8600186,1.80969212 33.227316,2.24508186 C32.431327,2.78937531 32.033335,3.50371223 32.0333366,4.38812478 C32.033335,5.51068178 32.3632952,6.35769988 33.0232172,6.92916298 L35.1050271,6.92916298 L36.5337187,8.33743546 L33.5640799,8.33743546 L33.5640799,21.5630621 L31.8700582,19.869042 L31.8700582,8.33743546 M35.0948216,8.33743546 L33.6967434,6.92916298 L52.7697948,6.92916298 L54.1678714,8.33743546 L44.7282932,8.33743546 L44.7282932,12.2663448 C44.9323823,12.0826683 45.082055,11.9568036 45.1773112,11.8887669 C45.4086134,11.7186913 45.6365234,11.6030354 45.8610428,11.5417992 C46.3236569,11.4125423 46.7556657,11.3479139 47.1570725,11.3478978 C48.1979629,11.3479139 49.0585803,11.7118909 49.7389246,12.4398287 C50.4192384,13.1609821 50.7594041,14.048819 50.7594186,15.1033233 C50.7594041,15.9469331 50.4600588,16.7429237 49.8613842,17.4912789 C49.4123518,18.0695586 48.7082107,18.5525997 47.7489594,18.9403863 L47.003998,17.4912789 C47.9700529,17.0422722 48.616366,16.688504 48.9429373,16.4299742 C49.664073,15.8652955 50.0246482,15.2461971 50.0246626,14.5726629 C50.0246482,13.9671814 49.7423104,13.4195119 49.1776526,12.9296703 C48.817063,12.6235374 48.2557909,12.5078814 47.4938347,12.5827025 C47.1332484,12.6167208 46.6910341,12.8548492 46.1671918,13.2970555 C45.6501307,13.7324613 45.1704978,14.26653 44.7282932,14.8992293 L44.7282932,21.5630621 L43.0342731,19.8486245 L43.0342731,16.878981 C42.7417234,17.2055474 42.309713,17.4878868 41.7382434,17.7259991 C41.166761,17.9573109 40.6531114,18.0729668 40.1972962,18.0729668 C39.2108142,18.0729668 38.3672059,17.7362078 37.6664683,17.0626736 C36.9725311,16.3891555 36.6255618,15.5591465 36.6255634,14.5726629 C36.6255618,13.5657779 36.955522,12.735785 37.615444,12.0826522 C38.2753612,11.422751 39.108764,11.0927924 40.115657,11.0927764 C41.394671,11.0927924 42.3675409,11.6370537 43.0342731,12.7255763 L43.0342731,13.3480669 C42.4355744,12.8174226 41.7484425,12.5520924 40.9728726,12.5520924 C39.9795852,12.5520924 39.2108142,12.7459938 38.6665545,13.1337642 C37.918188,13.6644407 37.5099904,14.3719772 37.4419601,15.2564058 C37.4011381,15.814268 37.5542126,16.2632908 37.901182,16.6034581 C38.1869184,16.8755888 38.5815086,17.0116461 39.0849575,17.0116461 C39.8061014,17.0116461 40.632702,16.6442769 41.5647595,15.9095226 C42.5444266,15.1339494 43.034265,14.3923785 43.0342731,13.6848421 L43.0342731,8.33743546 L35.0948216,8.33743546 M52.8106136,8.33743546 L51.4125354,6.92916298 L64.4646668,6.92916298 L65.8831545,8.33743546 L62.4236757,8.33743546 L62.4236757,21.5630621 L60.6684258,19.797597 L60.6684258,15.5829562 C60.1105475,15.916323 59.2805451,16.0830065 58.1784167,16.0830065 C57.0966882,15.974151 56.1850465,15.4843094 55.4434917,14.6134817 C54.7087325,13.7630875 54.3413553,12.7902047 54.3413569,11.6948656 L54.3413569,8.33743546 L52.8106136,8.33743546 M55.8823042,12.5724938 C55.8823042,13.1575899 56.0421775,13.6882503 56.361937,14.164475 C56.729311,14.7087362 57.1885329,14.9808669 57.7396043,14.9808669 C58.3314864,14.9808669 58.8485362,14.8175917 59.290757,14.4910253 C59.4404232,14.3957868 59.7125539,14.1576745 60.1071521,13.7766723 C60.263622,13.5997962 60.4507117,13.2970555 60.6684258,12.8684341 L60.6684258,8.33743546 L55.8823042,8.33743546 L55.8823042,12.5724938 M65.9545882,8.33743546 L64.4340519,8.33743546 L63.0359737,6.92916298 L66.2301223,6.92916298 C65.9035623,5.9699133 65.4341349,5.04125762 64.8218401,4.14321202 C64.0190507,2.96625139 63.2536798,2.37776303 62.5257259,2.37774696 C61.8113826,2.37776303 61.2433068,2.67031112 60.8214987,3.25537513 C60.440519,3.77925114 60.250026,4.41195047 60.2500227,5.15350528 C60.250026,5.61614507 60.3962968,6.16040636 60.6888352,6.78628917 L59.0356339,6.78628917 C58.8043269,6.17400727 58.6886645,5.54130793 58.6886645,4.88817509 C58.6886645,3.67039567 58.9403922,2.70773772 59.4438315,2.0001691 C60.0289196,1.19059369 60.9065446,0.785781866 62.076708,0.785781866 C63.328517,0.785781866 64.4238464,1.53076102 65.3627012,3.02067109 C65.8457343,3.78945986 66.4274158,5.09228513 67.1077488,6.92916298 L69.7406253,6.92916298 L71.1387035,8.33743546 L67.6486099,8.33743546 L67.6486099,21.5426447 L65.9545882,19.8486245 L65.9545882,8.33743546 M71.2203427,8.33743546 L69.7100104,8.33743546 L68.2813173,6.92916298 L71.2407521,6.92916298 C70.5604223,5.92909451 70.2202566,4.71129901 70.2202582,3.27579256 C70.2202566,2.22128831 70.67948,1.39129547 71.5979254,0.785781866 C72.3939096,0.261954083 73.3497719,0 74.4655172,0 C76.5813358,0 78.5474881,0.700752092 80.3639775,2.10222412 C82.4593819,3.72142318 83.932294,5.3746245 84.7827204,7.06182808 L84.2622687,7.06182808 C83.1737268,5.45626208 81.9287247,4.1942556 80.5272575,3.27579256 C79.0305212,2.29612545 77.2990842,1.75527242 75.3329382,1.65320132 C74.1967819,1.59199724 73.2647308,1.79609121 72.5367818,2.26549929 C71.7680058,2.76895787 71.3836211,3.47651042 71.3836227,4.38812478 C71.3836211,5.51068178 71.7135797,6.35769988 72.3735018,6.92916298 L74.506336,6.92916298 L75.9350291,8.33743546 L72.9143644,8.33743546 L72.9143644,21.5630621 L71.2203427,19.8792346 L71.2203427,8.33743546 M83.435668,8.33743546 L74.4451062,8.33743546 L73.0470295,6.92916298 L87.5482619,6.92916298 L88.9667496,8.33743546 L84.9562043,8.33743546 L84.9562043,12.7867965 L80.1802881,12.7663951 C78.8944607,12.7595947 78.2515495,13.0657436 78.2515527,13.6848421 C78.2515495,14.0522273 78.3535981,14.3651767 78.5577017,14.6236904 C78.775403,14.9026376 79.0645428,15.0421031 79.4251227,15.042087 C79.7108559,15.0421031 80.136061,14.9978761 80.7007414,14.9094219 C81.2654072,14.8141835 81.690614,14.7665642 81.97636,14.7665642 C82.9560255,14.7665642 83.7962335,15.1815687 84.4969824,16.0115615 C85.1704989,16.8007517 85.5072612,17.695389 85.5072724,18.6954735 C85.5072612,19.491448 85.1092691,20.1819914 84.313293,20.7670715 C83.5853311,21.3045324 82.8063545,21.5732547 81.97636,21.5732547 C80.4320045,21.5732547 78.9692963,20.8725187 77.588232,19.4710467 C76.6561777,18.5253818 75.6867081,17.1545199 74.6798215,15.3584448 L75.3023233,15.0012683 C75.9554385,16.2394812 76.7480208,17.3041942 77.6800751,18.1954232 C78.8570422,19.3247807 80.0067994,19.8894433 81.1293483,19.8894433 C81.8709015,19.8894433 82.5410259,19.6479228 83.1397246,19.1648977 C83.786028,18.6546547 84.1091846,18.0389485 84.1091942,17.3177951 C84.1091846,17.0184626 84.0071344,16.7633411 83.8030452,16.5524306 C83.5989368,16.3415362 83.3506174,16.2360729 83.0580838,16.2360729 C82.7519267,16.2360729 82.3131159,16.3551371 81.7416463,16.5932494 C81.176966,16.8245613 80.7449556,16.9402172 80.4456167,16.9402172 C79.6700355,16.9402172 78.9863054,16.5388297 78.3944217,15.7360226 C78.2107291,15.4979264 77.8025315,14.7665642 77.1698289,13.5419683 C76.9181045,13.0589432 76.792243,12.6677484 76.7922447,12.3683998 C76.792243,11.7901202 77.1017923,11.4057419 77.7208955,11.2152327 C78.0678601,11.1063933 78.6155248,11.0519736 79.3638929,11.0519576 L83.435668,11.0519576 L83.435668,8.33743546 M87.5482619,8.33743546 L86.1501837,6.92916298 L100.406497,6.92916298 L101.824994,8.33743546 L98.3450916,8.33743546 L98.3450916,21.5630621 L96.6816976,19.8792346 L96.6816976,16.1748367 C95.8584892,17.1205015 94.8039688,17.593334 93.5181576,17.593334 C91.9329849,17.593334 90.7219979,16.9878364 89.8851949,15.7768575 C89.3409304,14.9876673 89.0687982,14.0896378 89.0687998,13.0827367 C89.6810945,13.0827528 90.2287593,12.9262781 90.7117972,12.6133126 C91.2492532,12.2663609 91.5656061,11.8071294 91.6608575,11.2356502 C91.701673,11.0995929 91.7220824,10.8648728 91.7220856,10.5315059 C91.7220824,9.53823787 91.3479016,8.8068757 90.5995415,8.33743546 L87.5482619,8.33743546 M92.1813091,13.3480669 C91.7935161,13.7562709 91.4465483,14.0420186 91.1404042,14.2052937 C90.9226948,14.3209497 90.6097438,14.4332134 90.2015494,14.5420528 C90.5213009,15.5421374 91.2016308,16.1952541 92.2425389,16.5014031 C92.6235186,16.5762402 92.8684378,16.6136508 92.9772949,16.6136508 C94.2699163,16.6136508 95.3346292,15.8176763 96.1714386,14.2256951 C96.4843881,13.6270141 96.6408788,12.9432873 96.6408788,12.1744985 L96.6408788,8.33743546 L92.4568432,8.33743546 C92.9738882,9.0177862 93.2324131,9.83758641 93.2324196,10.7968361 C93.2324131,11.7561179 92.8820435,12.6065282 92.1813091,13.3480669 M101.927033,8.33743546 L100.406497,8.33743546 L98.9982084,6.92916298 L105.692667,6.92916298 L107.090747,8.33743546 L103.600652,8.33743546 L103.600652,21.5630621 L101.927033,19.869042 L101.927033,8.33743546 M113.274947,5.78620462 L115.060813,7.56186232 L115.060813,22.583548 L113.274947,20.818099 L113.274947,5.78620462 M118.214134,5.78620462 L120,7.56186232 L120,22.583548 L118.214134,20.818099 L118.214134,5.78620462" id="wikipedia-wordmark-sa" fill="#000000" fill-rule="nonzero"></path>
    </g>
</svg>

<svg xmlns="http://www.w3.org/2000/svg" width="120" height="23"><path fill="#000" fill-rule="nonzero" d="m0 5.786 1.786 1.776v15.022L0 20.818V5.786m4.94 0 1.785 1.776v15.022L4.94 20.818V5.786m9.583 2.551h-1.51l-1.43-1.408h2.96c-.68-1-1.02-2.218-1.02-3.653 0-1.027.398-1.84 1.194-2.44.646-.482 1.517-.724 2.612-.724 1.102 0 2.048.123 2.837.368.918.279 1.833.768 2.745 1.47 1.578 1.217 2.793 2.921 3.643 5.112h-.52c-.109-.19-.29-.548-.541-1.072-.252-.578-.731-1.207-1.439-1.888-.898-.864-1.776-1.48-2.633-1.847a7.906 7.906 0 0 0-3.133-.663c-.973 0-1.775.218-2.408.653-.796.544-1.194 1.259-1.194 2.143 0 1.123.33 1.97.99 2.541h2.082l1.428 1.408h-2.97v13.226l-1.693-1.694V8.337m3.224 0L16.36 6.93H30.39l1.378 1.408h-3.44v13.226l-1.816-1.816v-3.664c-.51.34-1.095.64-1.755.898-.755.293-1.388.425-1.898.398-1.034-.054-1.929-.554-2.684-1.5-.599-.755-.898-1.646-.898-2.674.116-.53.313-.956.592-1.275 1.082-1.02 2.28-1.507 3.592-1.46 1.306.041 2.323.667 3.051 1.878v-4.01h-8.766m8.552 4.47c-.218-.463-.891-.695-2.02-.695-1.211 0-2.286.477-3.225 1.429-.456.463-.684.935-.684 1.418 0 .64.52.96 1.561.96 1.307 0 2.494-.551 3.562-1.653.537-.552.806-1.038.806-1.46m5.572-4.47h-1.51L28.93 6.93h2.96c-.68-1-1.021-2.218-1.021-3.653 0-1.027.398-1.84 1.194-2.44.646-.482 1.517-.724 2.612-.724 1.103 0 2.048.123 2.837.368.919.279 1.834.768 2.746 1.47 1.578 1.217 2.792 2.921 3.643 5.112h-.52c-.11-.19-.29-.548-.542-1.072-.251-.578-.731-1.207-1.439-1.888-.898-.864-1.775-1.48-2.632-1.847a7.906 7.906 0 0 0-3.133-.663c-.973 0-1.776.218-2.409.653-.796.544-1.194 1.259-1.194 2.143 0 1.123.33 1.97.99 2.541h2.082l1.429 1.408h-2.97v13.226L31.87 19.87V8.337m3.225 0L33.697 6.93H52.77l1.398 1.408h-9.44v3.93c.204-.184.354-.31.45-.378.23-.17.459-.286.683-.347.463-.13.895-.194 1.296-.194 1.041 0 1.902.364 2.582 1.092.68.721 1.02 1.609 1.02 2.663 0 .844-.299 1.64-.898 2.388-.449.579-1.153 1.062-2.112 1.45l-.745-1.45c.966-.449 1.612-.802 1.939-1.061.721-.565 1.082-1.184 1.082-1.857 0-.606-.283-1.153-.847-1.643-.36-.306-.922-.422-1.684-.347-.36.034-.803.272-1.327.714a8.27 8.27 0 0 0-1.439 1.602v6.664l-1.694-1.714v-2.97c-.292.327-.724.609-1.296.847-.571.231-1.085.347-1.54.347-.987 0-1.83-.337-2.532-1.01-.693-.674-1.04-1.504-1.04-2.49 0-1.007.33-1.837.99-2.49.66-.66 1.493-.99 2.5-.99 1.279 0 2.252.544 2.918 1.633v.622c-.598-.53-1.286-.796-2.061-.796-.993 0-1.762.194-2.306.582-.749.53-1.157 1.238-1.225 2.122-.04.558.112 1.007.46 1.347.285.273.68.409 1.183.409.721 0 1.548-.368 2.48-1.102.98-.776 1.47-1.518 1.47-2.225V8.337h-7.94m17.716 0L51.413 6.93h13.052l1.418 1.408h-3.46v13.226l-1.755-1.765v-4.215c-.557.333-1.387.5-2.49.5-1.081-.109-1.993-.599-2.735-1.47-.734-.85-1.102-1.823-1.102-2.918V8.337h-1.53m3.071 4.235c0 .586.16 1.116.48 1.592.367.545.827.817 1.378.817.591 0 1.109-.163 1.55-.49.15-.095.423-.333.817-.714.157-.177.344-.48.561-.909v-4.53h-4.786v4.234m10.073-4.235h-1.52L63.035 6.93h3.194a11.543 11.543 0 0 0-1.408-2.786c-.803-1.177-1.568-1.765-2.296-1.765-.715 0-1.283.292-1.705.877-.38.524-.571 1.157-.571 1.899 0 .462.146 1.006.439 1.632h-1.653a5.328 5.328 0 0 1-.347-1.898c0-1.218.251-2.18.755-2.888.585-.81 1.463-1.214 2.633-1.214 1.252 0 2.347.745 3.286 2.235.483.768 1.064 2.071 1.745 3.908h2.633l1.398 1.408h-3.49v13.206l-1.694-1.694V8.337m5.265 0h-1.51L68.281 6.93h2.96c-.68-1-1.02-2.218-1.02-3.653 0-1.055.458-1.885 1.377-2.49C72.394.262 73.35 0 74.466 0c2.115 0 4.081.7 5.898 2.102 2.095 1.62 3.568 3.273 4.419 4.96h-.52c-1.09-1.606-2.334-2.868-3.736-3.786-1.496-.98-3.228-1.52-5.194-1.623-1.136-.061-2.068.143-2.796.612-.769.504-1.153 1.212-1.153 2.123 0 1.123.33 1.97.99 2.541h2.132l1.429 1.408h-3.02v13.226L71.22 19.88V8.337m12.216 0h-8.99L73.046 6.93h14.501l1.419 1.408h-4.01v4.45l-4.777-.02c-1.286-.007-1.928.299-1.928.918 0 .367.102.68.306.939.217.279.507.418.867.418.286 0 .711-.044 1.276-.133.564-.095.99-.142 1.275-.142.98 0 1.82.415 2.521 1.245.673.789 1.01 1.683 1.01 2.683 0 .796-.398 1.487-1.194 2.072-.728.538-1.507.806-2.337.806-1.544 0-3.007-.7-4.388-2.102-.932-.946-1.901-2.316-2.908-4.113l.622-.357c.653 1.238 1.446 2.303 2.378 3.194 1.177 1.13 2.327 1.694 3.45 1.694.74 0 1.411-.241 2.01-.724.646-.51.97-1.126.97-1.847 0-.3-.103-.555-.307-.766a.998.998 0 0 0-.745-.316c-.306 0-.745.12-1.316.357-.565.232-.997.347-1.296.347-.776 0-1.46-.401-2.052-1.204-.183-.238-.591-.97-1.224-2.194-.252-.483-.378-.874-.378-1.174 0-.578.31-.962.929-1.153.347-.109.895-.163 1.643-.163h4.072V8.337m4.112 0L86.15 6.93h14.256l1.419 1.408h-3.48v13.226l-1.663-1.684v-3.704c-.824.946-1.878 1.418-3.164 1.418-1.585 0-2.796-.605-3.633-1.816-.544-.79-.816-1.687-.816-2.694.612 0 1.16-.157 1.643-.47.537-.347.854-.806.949-1.377.04-.136.061-.371.061-.704 0-.994-.374-1.725-1.122-2.195h-3.052m4.633 5.011c-.387.408-.734.694-1.04.857-.218.116-.531.228-.94.337.32 1 1 1.653 2.042 1.96.38.074.625.112.734.112 1.293 0 2.358-.796 3.194-2.388.313-.599.47-1.283.47-2.052V8.337h-4.184c.517.68.775 1.5.775 2.46s-.35 1.81-1.05 2.551m9.745-5.01h-1.52l-1.409-1.409h6.695l1.398 1.408h-3.49v13.226l-1.674-1.694V8.337m11.348-2.55 1.786 1.775v15.022l-1.786-1.766V5.786m4.94 0L120 7.562v15.022l-1.786-1.766V5.786"/></svg>
